!!!COM: Palestrina, Giovanni Perluigi da
!!!OPR: Ut re mi fa sol la
!!!OTL: Agnus I
**kern	**kern	**kern	**kern	**kern	**kern
*Ibass	*Itenor	*Icalto	*Icalto	*Icant	*Icant
!Bassus	!Tenor	!Altus 2	!Altus 1	!Cantus 2	!Cantus 1
*clefF4	*clefGv2	*clefG2	*clefG2	*clefG2	*clefG2
*k[]	*k[]	*k[]	*k[]	*k[]	*k[]
*C:ion	*C:ion	*C:ion	*C:ion	*C:ion	*C:ion
*M4/2	*M4/2	*M4/2	*M4/2	*M4/2	*M4/2
=1	=1	=1	=1	=1	=1
0r	0r	0r	1r	0r	1dd
.	.	.	1g	.	1dd
=2	=2	=2	=2	=2	=2
0r	0r	0r	1g	0r	2.ee
.	.	.	.	.	4dd
.	.	.	2.a	.	2cc
.	.	.	.	.	2b
.	.	.	4g	.	.
=3	=3	=3	=3	=3	=3
0r	0r	0r	2f	0r	2a
.	.	.	2e	.	2.cc
.	.	.	2d	.	.
.	.	.	.	.	4b
.	.	.	[2g	.	4b
.	.	.	.	.	8a
.	.	.	.	.	8g
=4	=4	=4	=4	=4	=4
0r	1d	0r	2g]	0r	1a
.	.	.	4f	.	.
.	.	.	4e	.	.
.	1d	.	1f#	.	2a
.	.	.	.	.	2dd
=5	=5	=5	=5	=5	=5
0r	2.e	0r	2g	0g	2b
.	.	.	1c	.	1ee
.	4d	.	.	.	.
.	2c	.	.	.	.
.	2B	.	2d	.	[2dd
=6	=6	=6	=6	=6	=6
0r	1A	1r	1e	0a	2dd]
.	.	.	.	.	2cc#
.	2.d	2r	1f	.	2dd
.	.	[2d	.	.	2a
.	4c	.	.	.	.
=7	=7	=7	=7	=7	=7
1G	4B	2d]	0g	0b	2.dd
.	4A	.	.	.	.
.	2B	2d	.	.	.
.	.	.	.	.	4cc
1G	2G	2.e	.	.	1b
.	2g	.	.	.	.
.	.	4d	.	.	.
=8	=8	=8	=8	=8	=8
2.A	2e	2.c	2r	0cc	1a
.	1a	.	2e	.	.
4G	.	4B	.	.	.
2F	.	2A	2f	.	1r
2E	2g	[2c	2g	.	.
=9	=9	=9	=9	=9	=9
1D	1f	2c]	1a	0dd	0r
.	.	4B	.	.	.
.	.	4A	.	.	.
1G	2.g	1B	1d	.	.
.	4f	.	.	.	.
=10	=10	=10	=10	=10	=10
1C	4e	2c	2.g	0ee	0r
.	4d	.	.	.	.
.	1e	1g	.	.	.
.	.	.	4f	.	.
1c	.	.	4e	.	.
.	.	.	4d	.	.
.	[2c	2g	[2e	.	.
=11	=11	=11	=11	=11	=11
2A	2c]	2.a	2e]	0r	0r
4F	2A	.	1a	.	.
4G	.	4g	.	.	.
4A	1c	2f	.	.	.
4B	.	.	.	.	.
[2c	.	2e	2g	.	.
=12	=12	=12	=12	=12	=12
2c]	1G	0d	1g	0r	1dd
4B	.	.	.	.	.
4A	.	.	.	.	.
1B	2r	.	2r	.	1dd
.	2G	.	2g	.	.
=13	=13	=13	=13	=13	=13
1c	2c	2.c	2g	0r	2.ee
.	4A	.	1a	.	.
.	4B	4d	.	.	4dd
1r	4c	1e	.	.	2cc
.	4d	.	.	.	.
.	2e	.	2g	.	2b
=14	=14	=14	=14	=14	=14
0r	2.A	2r	0cc	0ee	1a
.	.	1e	.	.	.
.	4B	.	.	.	.
.	1c	.	.	.	[1g
.	.	2c	.	.	.
=15	=15	=15	=15	=15	=15
1G	4G	2.d	0b	0dd	1g]
.	4A	.	.	.	.
.	4B	.	.	.	.
.	4c	4c	.	.	.
1G	1d	4B	.	.	2r
.	.	4G	.	.	.
.	.	2g	.	.	2b
=16	=16	=16	=16	=16	=16
2.A	2r	2e	1a	0cc	2cc
.	1e	4c	.	.	2a
4B	.	4d	.	.	.
2c	.	4e	1r	.	2g
.	.	4f	.	.	.
2C	2c	[2g	.	.	4e
.	.	.	.	.	4f
=17	=17	=17	=17	=17	=17
1G	2.d	2g]	1g	0b	4g
.	.	.	.	.	4a
.	.	4f	.	.	4b
.	4c	4e	.	.	4cc
1G	4B	2d	1g	.	2dd
.	4A	.	.	.	.
.	2B	2e	.	.	2g
=18	=18	=18	=18	=18	=18
2F	2c	1f	2.a	0a	0r
2D	2d	.	.	.	.
.	.	.	4g	.	.
1F	2A	1c	2f	.	.
.	[2c	.	2e	.	.
=19	=19	=19	=19	=19	=19
0G	2c]	1r	0d	0g	1dd
.	4B	.	.	.	.
.	4A	.	.	.	.
.	1B	2r	.	.	1dd
.	.	[2g	.	.	.
=20	=20	=20	=20	=20	=20
1C	2c	2g]	1c	0r	2.ee
.	2e	2g	.	.	.
.	.	.	.	.	4dd
1r	2f	2a	1r	.	2cc
.	2g	[2g	.	.	2b
=21	=21	=21	=21	=21	=21
0r	1d	2g]	2r	0r	1a
.	.	2f#	2d	.	.
.	4g	[1g	2e	.	1g
.	4f	.	.	.	.
.	4e	.	[2c	.	.
.	4d	.	.	.	.
=22	=22	=22	=22	=22	=22
0r	2e	1g]	2c]	0r	2r
.	2d	.	2B	.	2dd
.	1c	2r	2c	.	2ee
.	.	2g	2e	.	[2cc
=23	=23	=23	=23	=23	=23
2r	0r	2a	1d	0r	2cc]
2G	.	2g	.	.	2b
2A	.	2e	2c	.	2.cc
[2F	.	[2f	4A	.	.
.	.	.	4B	.	4b
=24	=24	=24	=24	=24	=24
2F]	0r	2f]	4c	0r	2a
.	.	.	4d	.	.
2E	.	2g	2e	.	2g
2F	.	4a	2d	.	1f
.	.	4b	.	.	.
2A	.	[2cc	2c	.	.
=25	=25	=25	=25	=25	=25
1G	2r	2cc]	1d	1r	0g
.	2d	2b	.	.	.
1C	2e	1cc	2c	[1g	.
.	[2c	.	2e	.	.
=26	=26	=26	=26	=26	=26
1G	2c]	1r	1d	0g]	2r
.	2B	.	.	.	2dd
1C	2c	2r	1c	.	2ee
.	2e	2e	.	.	2cc
=27	=27	=27	=27	=27	=27
0r	1d	2f	1r	[0a	2dd
.	.	1d	.	.	1ff
.	1A	.	2r	.	.
.	.	2c#	2e	.	2ee
=28	=28	=28	=28	=28	=28
0r	0r	2d	2f	1a]	1dd
.	.	2f	1a	.	.
.	.	[1e	.	[1b	[1ee
.	.	.	4g	.	.
.	.	.	4f#	.	.
=29	=29	=29	=29	=29	=29
1r	1r	2e]	2g#	1b]	2ee]
.	.	2d	1a	.	2ff
1E	2r	2.e	.	1b	1ee
.	2e	.	2g#	.	.
.	.	4d	.	.	.
=30	=30	=30	=30	=30	=30
2A	2e	4c	1a	0cc	1r
.	.	4A	.	.	.
1F	4A	1a	.	.	.
.	4B	.	.	.	.
.	4c	.	2f	.	2r
.	4d	.	.	.	.
2E	2e	2g	2g	.	2g
=31	=31	=31	=31	=31	=31
2F	1A	2f	1c	1cc	2a
2A	.	2e	.	.	1cc
1G	1d	1g	2r	[1dd	.
.	.	.	[2g	.	2b
=32	=32	=32	=32	=32	=32
1D	1r	1a	2g]	0dd]	2a
.	.	.	2f#	.	2.dd
1G	2r	1d	1g	.	.
.	.	.	.	.	4cc
.	2B	.	.	.	4b
.	.	.	.	.	4a
=33	=33	=33	=33	=33	=33
1r	2c	1r	1.e	[0ee	2g
.	1A	.	.	.	2cc
1E	.	2r	.	.	1b
.	2G#	2b	2e	.	.
=34	=34	=34	=34	=34	=34
1A	2A	2cc	2.c	1ee_	1a
.	2c	1a	.	.	.
.	.	.	4d	.	.
1E	1B	.	[1e	1ee_	2r
.	.	2g#	.	.	2b
=35	=35	=35	=35	=35	=35
1A	1A	2a	1e]	0ee]	2cc
.	.	2cc	.	.	1a
1E	2r	1b	1e	.	.
.	2e	.	.	.	2g#
=36	=36	=36	=36	=36	=36
2.F	2c	0a	2A	0r	2a
.	2A	.	2f	.	2.cc
4G	.	.	.	.	.
2A	2c	.	2e	.	.
.	.	.	.	.	4b
2D	2d	.	2f	.	[2a
=37	=37	=37	=37	=37	=37
1E	1B	2r	1d	1r	2a]
.	.	1e	.	.	2g#
2r	1A	.	1c	[1ee	2a
[2A	.	2e	.	.	[2cc
=38	=38	=38	=38	=38	=38
2A]	0r	1e	2r	0ee]	2cc]
2G#	.	.	1e	.	2b
1A	.	4c	.	.	1cc
.	.	4d	.	.	.
.	.	4e	2e	.	.
.	.	4c	.	.	.
=39	=39	=39	=39	=39	=39
2D	0r	2.d	2f#	[0dd	2a
1G	.	.	2g	.	2.b
.	.	4c	.	.	.
.	.	2B	[1d	.	.
.	.	.	.	.	4g
2F#	.	2A	.	.	2a
=40	=40	=40	=40	=40	=40
1G	1r	1B	1d]	1dd]	1g
2C	2r	[1c	2e	[1cc	2r
4F	[2f	.	[2a	.	4a
4G	.	.	.	.	4b
=41	=41	=41	=41	=41	=41
4A	2f]	1c]	2a]	0cc]	4cc
4B	.	.	.	.	4dd
2c	2e	.	2g	.	2ee
1F	1f	2r	1a	.	2cc
.	.	[2a	.	.	[2ff
=42	=42	=42	=42	=42	=42
0r	2d	2a]	0r	[0b	2ff]
.	1e	4g	.	.	4ee
.	.	4f#	.	.	4dd
.	.	2g#	.	.	2ee
.	2d	[2a	.	.	2ff
=43	=43	=43	=43	=43	=43
1E	1e	2a]	1r	1b]	1.ee
.	.	2g#	.	.	.
2A	2c	1a	2r	[1a	.
4D	[2d	.	[2f	.	2dd
4E	.	.	.	.	.
=44	=44	=44	=44	=44	=44
4F	2d]	1.A	2f]	0a]	0r
4G	.	.	.	.	.
2A	2c#	.	2e	.	.
1D	1d	.	1f	.	.
.	.	[2d	.	.	.
=45	=45	=45	=45	=45	=45
2G	2B	2d]	2d	[0g	2r
2C	1c	4c	2.e	.	1ee
.	.	4d	.	.	.
2r	.	4e	.	.	.
.	.	4f	4c	.	.
2G	2B	[2g	2d	.	2dd
=46	=46	=46	=46	=46	=46
2C	1c	4g]	4c	0g]	1ee
.	.	4f	4d	.	.
1c	.	4e	4e	.	.
.	.	4d	4f	.	.
.	2r	2e	4g	.	2cc
.	.	.	4a	.	.
2B	2G	2d	2b	.	[2dd
=47	=47	=47	=47	=47	=47
1c	2c	2e	0g	0r	4dd]
.	.	.	.	.	4cc
.	2e	2c	.	.	1cc
1G	1d	2d	.	.	.
.	.	2g	.	.	2b
=48	=48	=48	=48	=48	=48
2r	1c	2e	0r	[0g	2cc
1c	.	4c	.	.	1ee
.	.	4d	.	.	.
.	1G	4e	.	.	.
.	.	4f	.	.	.
2B	.	[2g	.	.	2dd
=49	=49	=49	=49	=49	=49
1c	0r	4g]	2r	1g]	1ee
.	.	4f	.	.	.
.	.	4e	2.cc	.	.
.	.	4d	.	.	.
2A	.	2e	.	[1a	2cc
.	.	.	4b	.	.
[2d	.	2f	4a	.	[2ff
.	.	.	4g	.	.
=50	=50	=50	=50	=50	=50
2d]	1r	2d	4f	0a]	2ff]
.	.	.	4d	.	.
2c#	.	2e	1a	.	2ee
1d	2r	2f	.	.	[1dd
.	2d	2d	2f	.	.
=51	=51	=51	=51	=51	=51
1G	2B	0r	1g	[0b	2dd]
.	1e	.	.	.	1gg
1r	.	.	2e	.	.
.	2d	.	[2a	.	2ff
=52	=52	=52	=52	=52	=52
1E	1e	1r	2a]	1b]	1ee
.	.	.	2g#	.	.
2A	2c	2r	1a	[1cc	2ee
4F	[2f	[2a	.	.	4a
4G	.	.	.	.	4b
=53	=53	=53	=53	=53	=53
4A	2f]	2a]	1r	0cc]	4cc
4B	.	.	.	.	4dd
2c	2e	2g	.	.	2ee
1F	1f	1a	2r	.	2cc
.	.	.	[2a	.	[2ff
=54	=54	=54	=54	=54	=54
2r	2d	2f	2a]	[0dd	4ff]
.	.	.	.	.	4ee
1G	1g	2g	2b	.	4dd
.	.	.	.	.	4cc
.	.	[1d	2g	.	2b
2d	2f#	.	2a	.	2a
=55	=55	=55	=55	=55	=55
1G	1g	1d]	1b	1dd]	1g
2c	[1e	2r	1cc	[1ee	2r
4A	.	[2a	.	.	[2cc
4B	.	.	.	.	.
=56	=56	=56	=56	=56	=56
4c	1e]	2a]	0r	0ee]	2cc]
4d	.	.	.	.	.
2e	.	2g#	.	.	2b
1A	2r	1a	.	.	1cc
.	2A	.	.	.	.
=57	=57	=57	=57	=57	=57
0r	2d	2f#	0r	[0dd	2a
.	4G	1g	.	.	1b
.	4A	.	.	.	.
.	4B	.	.	.	.
.	4c	.	.	.	.
.	2d	2f#	.	.	2a
=58	=58	=58	=58	=58	=58
2r	2G	1g	1r	1dd]	1b
2G	2g	.	.	.	.
2A	2e	[1c	2r	[1cc	2.a
4F	[2f	.	[2a	.	.
4G	.	.	.	.	4b
=59	=59	=59	=59	=59	=59
4A	2f]	0c]	2a]	0cc]	4cc
4B	.	.	.	.	4dd
2c	2e	.	2g	.	2ee
1F	1f	.	1a	.	2cc
.	.	.	.	.	2a
=60	=60	=60	=60	=60	=60
1G	2d	0r	2.g	[0b	4dd
.	.	.	.	.	4g
.	1e	.	.	.	1gg
.	.	.	4f#	.	.
1r	.	.	2g	.	.
.	2d	.	[2a	.	2ff
=61	=61	=61	=61	=61	=61
1E	1e	1r	2a]	1b]	1.ee
.	.	.	2g#	.	.
2A	2c	2r	1a	[1a	.
4D	[2d	[2f	.	.	2dd
4E	.	.	.	.	.
=62	=62	=62	=62	=62	=62
4F	2d]	2f]	1A	0a]	0r
4G	.	.	.	.	.
2A	2c#	2e	.	.	.
1D	1d	1f	2A	.	.
.	.	.	[2d	.	.
=63	=63	=63	=63	=63	=63
2G	2B	2d	2d]	[0g	2r
2C	1c	2.e	4c	.	1ee
.	.	.	4d	.	.
2r	.	.	4e	.	.
.	.	4c	4f	.	.
2G	2B	2d	2g	.	2dd
=64	=64	=64	=64	=64	=64
2C	1c	4c	2e	1g_	1ee
.	.	4d	.	.	.
1C	.	4e	2c	.	.
.	.	4f	.	.	.
.	[1G	2.g	2e	1g_	2cc
2G	.	.	2d	.	[2dd
.	.	4f	.	.	.
=65	=65	=65	=65	=65	=65
1C	0G]	2e	4e	0g]	4dd]
.	.	.	4f	.	4cc
.	.	2c	2.g	.	1cc
1G	.	1d	.	.	.
.	.	.	4f	.	.
.	.	.	2d	.	2b
=66	=66	=66	=66	=66	=66
[0C	[0G	[0c	[0e	[0g	[0cc
=67	=67	=67	=67	=67	=67
0C]	0G]	0c]	0e]	0g]	0cc]
==	==	==	==	==	==
*-	*-	*-	*-	*-	*-
!!!CDT: 1525/^1526/-1594/2/2
!!!OCY: Italia
!!!AGN: Mass (Tenor)
!!!AST: renaissance, vocal
!!!ASW: Antiphon
!!!PWK: Masses, Book 3
!!!RNB: Cadence finals: G
!!!YOR: Le Opere Complete, v. 6, p. 216
!!!YOO: Rome, Italy: Fratelli Scalera
!!!END: 1992//
!!!EED: John Miller
!!!YEC: Copyright 2000, John Miller
!!!YEN: United States of America
!!!YEM: Rights to all derivative electronic formats reserved.
!!!YEM: Refer to licensing agreement for further details.
!!!YEM: This file must be accompanied by the licensing agreement.
!!!YEM: A copy of the licensing agreement may be found at http://www.music-cog.ohio-state.edu/HumdrumDatabases/Palestrina/license.txt
!!!EMD: converted to Humdrum by Bret Aarden
